X:1
T:Azerbaijan melody piano
T:"Anadır arzulara hər zaman Qarabağ"
T:Söz və musiqisi: Bəhram Nəsibov (1942-1998)
T:Notları tərtib etdi: Müşfiq Abdullayev
C:Ali Qasimov
%%score { 1 | 2 }
L:1/8
Q:1/4=160
M:3/4
K:G
V:1 treble nm="Instrument 1"
V:2 bass 
V:1
 z6 | z4 z2 |!mf! [E,G,B,]2[K:treble] faag | gfgf e2 | Pg3 Pf3 | e2 Pfe ^d2- | d2 e ggf | %7
 fe fe ^d2 | f3 e3 | ^d2 ed c2- | c2 ^dcde | Pfe^dc B2 | ce"^B" ^dc B^A | B^A"^C"Bc^de | %14
 f2"^Em"!f! faag | gfgf e2 | Pg3 Pf3 | e2 Tfe ^d2- |"^B" d2 e ggf | fe fe P^d2 | f3 e3 | %21
 ^d2 ed c2- | c2"^C" ^dcde | fe^dc B2 | ce"^B" ^dc B^A | B6 | z2"^C" ^dcde | fe^dced | cB^dcB^A | %29
"^B" B6 | B2 ^de f2 | Pf2 ea f2- |"^Em" f g2 f g2 | Pg2 e^d e2- |"^B" e2 ^de f2 | Pf2 ea f2- | %36
 f g2 fgf | Pg2 e^d !46!e2- | e2 g g2 a | aggf P!48!g2 |] z g2 f gf | gf e^d e2- | e2 gg ba | %43
 a2 ba Pg2 | z g2 f gf | gf e^d e=f | !>!f>f"^Em"!f! faag | gfgf e2 | Pg3 Pf3 | e2 Tfe ^d2- | %50
"^B" d2 e ggf | fe fe P^d2 | f3 e3 | ^d2 ed c2 | c2"^C" ^dcde | fe^dc PB2 | ce ^dc B^A | %57
 !>!B4 z2 |] %58
V:2
!p! E,,2 [E,G,B,] B,,[E,G,B,][E,G,B,] | E,,[E,G,B,][E,G,B,] B,,[E,G,B,][E,G,B,] | E,,6 | z6 | %4
!mp! [E,G,B,]2 [E,G,B,]B,,[E,G,B,][E,G,B,] | E,,[E,G,B,][E,G,B,] B,,[E,G,B,][E,G,B,] | %6
 [^D,F,A,]2 [D,F,A,]F,,[D,F,A,][D,F,A,] | B,,,[^D,F,A,][D,F,A,] F,,[D,F,A,][D,F,A,] | %8
 [^D,F,A,]2 [D,F,A,]F,,[D,F,A,][D,F,A,] | B,,,[^D,F,A,][D,F,A,] F,,[D,F,A,][D,F,A,] | %10
 [C,E,G,]2 [C,E,G,]G,,[C,E,G,][C,E,G,] | C,[C,E,G,][C,E,G,] G,,[C,E,G,][C,E,G,] | %12
 B,,,[B,,^D,F,][B,,D,F,] F,,[B,,D,F,][B,,D,F,] | C,,[C,E,G,][C,E,G,] G,,[C,E,G,][C,E,G,] | %14
 E,,2!mf! [E,G,B,] B,,[E,G,B,][E,G,B,] | E,,[E,G,B,][E,G,B,] B,,[E,G,B,][E,G,B,] | %16
 [E,G,B,]2 [E,G,B,]B,,[E,G,B,][E,G,B,] | E,,[E,G,B,][E,G,B,] B,,[E,G,B,][E,G,B,] | %18
 [^D,F,A,]2 [D,F,A,]F,,[D,F,A,][D,F,A,] | B,,,[^D,F,A,][D,F,A,] F,,[D,F,A,][D,F,A,] | %20
 [^D,F,A,]2 [D,F,A,]F,,[D,F,A,][D,F,A,] | B,,,[^D,F,A,][D,F,A,] F,,[D,F,A,][D,F,A,] | %22
 [C,E,G,]2 [C,E,G,]G,,[C,E,G,][C,E,G,] | C,[C,E,G,][C,E,G,] G,,[C,E,G,][C,E,G,] | %24
 B,,,[B,,^D,F,][B,,D,F,] F,,[B,,D,F,][B,,D,F,] | B,,,[B,,D,F,][B,,^D,F,] F,,[D,F,][D,F,] | %26
 [C,E,G,]2 [C,E,G,] G,,[C,E,G,][C,E,G,] | C,,[C,E,G,][C,E,G,] G,,[C,E,G,][C,E,G,] | %28
 C,,[C,E,G,][E,G,] G,,[C,E,G,][C,E,G,] | [B,,^D,F,]2 [B,,D,F,] F,,[B,,D,F,][B,,D,F,] | %30
 B,,,[^D,F,A,][D,F,A,] F,,[D,F,A,][D,F,A,] | B,,,[^D,F,A,][D,F,A,] F,,[D,F,A,][D,F,A,] | %32
 [E,G,B,]2 [E,G,B,]2 [E,G,B,][E,G,B,] | E,,[E,G,B,][E,G,B,] G,, [E,G,B,]2 | %34
 [^D,F,A,]2 [D,F,A,]F,,[D,F,A,][D,F,A,] | B,,,[^D,F,A,][D,F,A,] F,,[D,F,A,][D,F,A,] | %36
 [^D,F,A,]2 [D,F,A,]2 [D,F,A,][D,F,A,] | B,,,[^D,F,A,][D,F,A,] F,,[D,F,A,][D,F,A,] | %38
 [E,G,B,]2 [E,G,B,] B,,[E,G,B,][E,G,B,] | E,, [E,G,B,][E,G,B,] B,,[E,G,B,][E,G,B,] |] %40
 [^D,F,A,]2 [D,F,A,] A,,[D,F,A,][D,F,A,] | B,,,[^D,F,A,][D,F,A,] F,,[D,F,A,][D,F,] | %42
 [E,G,B,]2 [E,G,B,]B,, [E,G,B,][E,G,B,] | E,,[E,G,B,][E,G,B,] B,,[E,G,B,][E,G,B,] | %44
 [A,,,B,,,]2 [^D,F,A,] F,,[D,F,A,][D,F,A,] | B,,,[^D,F,A,][D,F,A,] F,,[F,A,]D, | %46
!mf! !>![E,G,B,]2 [E,G,B,] E,,[E,G,B,][E,G,B,] | E,,[E,G,B,][E,G,B,] B,,[E,G,B,][E,G,B,] | %48
 [E,G,B,]2 [E,G,B,]B,,[E,G,B,][E,G,B,] | E,,[E,G,B,][E,G,B,] B,,[E,G,B,][E,G,B,] | %50
 [^D,F,A,]2 [D,F,A,]F,,[D,F,A,][D,F,A,] | B,,,[^D,F,A,][D,F,A,] F,,[D,F,A,][D,F,A,] | %52
 [^D,F,A,]2 [D,F,A,]F,,[D,F,A,][D,F,A,] | B,,,[^D,F,A,][D,F,A,] F,,[D,F,A,][D,F,A,] | %54
 [C,E,G,]2 [C,E,G,]G,,[C,E,G,][C,E,G,] | C,[C,E,G,][C,E,G,] G,,[C,E,G,][C,E,G,] | %56
 B,,,[B,,^D,F,][B,,D,F,] F,,[B,,D,F,][B,,D,F,] | !>![B,,,F,,B,,_E,F,]4 z2 |] %58

